!!!OTL: Exultet 1
!!!SMS: Troia, Archivio Capitolare
**kern	**silbe
*	*LLatin
*staff12	*staff12
!T1	!T1
=1-	=1-
*clefGv2	*
*k[]	*
4F	E-
(8G	xul
8A)	.
4G	-tet
8G	iam
8F	an-
=2-	=2-
(8F	-ge-
8G)	.
8G	-li-
8G	-ca
(8G	tur-
8A)	.
(8A	-ba
8G)	.
=3-	=3-
4F	ce-
(4G	-lo-
8A	.
8G)	.
4F	-rum.
=4-	=4-
4F	e-
(8G	xul
8A)	.
4G	-tet
4G	di-
=5-	=5-
(4G	-vi-
4A)	.
(8A	-na
8G)	.
4F	my-
=6-	=6-
(8G	-ste-
8A)	.
(4G	-ri-
4F)	.
4F	-a.
=7-	=7-
8F	et
8F	pro
(16G	tan-
16A)	.
8G	-tis
8G	re-
8G	-gis
8F	vic-
(16F	-to-
16G)	.
=8-	=8-
8G	-ri-
8G	-a
8G	tu-
8F	-ba
8G	in-
8F	-to-
(16G	-net
16A)	.
(16G	.
16A)	.
=9-	=9-
16G	.
8F	.
(16G	sa-
8A)	.
(16G	-lu-
16A	.
8G)	.
8F	-ta-
4F	-ris.
=10-	=10-
(8G	Gau-
8A)	.
8G	-de-
8G	-at
8G	se
8G	tan-
8F	-tis
(16F	tel-
16G)	.
=11-	=11-
8G	-lus
8G	in-
8G	-ra-
8G	-di-
(8G	-a-
8A)	.
(8A	-ta
8G)	.
=12-	=12-
4F	ful-
(8G	-go-
8A)	.
(8G	-ri-
8F)	.
4F	-bus.
=13-	=13-
8F	et
8F	e-
8A	-ter-
8G	-ni
8G	re-
8G	-gis
4F	splen-
=14-	=14-
(8G	-do-
8A)	.
(4A	-re
4G)	.
4F	lu-
=15-	=15-
(4G	-stra-
4A	.
4G)	.
4F	-ta.
=16-	=16-
8F	to-
(16G	-ti-
16A)	.
8G	-us
8G	or-
8G	-bis
8F	se
(8F	sen-
8G)	.
=17-	=17-
8G	-ti-
8G	-at
8G	a-
8F	-mi-
(8G	-sis-
8A)	.
(8G	.
8A)	.
=18-	=18-
8G	.
8F	.
(16G	-se
8A)	.
(16G	ca-
16A	.
8G)	.
16F	-li-
(16E	-gi-
8F)	.
16F	-nem.
=19-	=19-
(16G	Le-
16A)	.
8G	-te-
8G	-tur
8G	et
8G	ma-
8G	-ter
8F	ec-
(16F	-cle-
16G)	.
=20-	=20-
16G	-si-
16G	-a
16G	tan-
8F	-ti
(16F	lu-
16G)	.
8G	-mi-
16G	-nis
16G	a-
16G	-dor-
(16G	-na-
16A)	.
(16A	-ta
16G)	.
=21-	=21-
4F	ful-
(8G	-go-
8A)	.
(8G	-ri-
8F)	.
4F	-bus.
=22-	=22-
8F	et
(16G	mag-
16A)	.
8G	-nis
8G	po-
8G	-pu-
8G	-lo-
8F	-rum
(16F	vo-
16G)	.
=23-	=23-
8G	-ci-
8G	-bus.
8F	hec
(8G	au-
8A)	.
(8G	.
8A)	.
8G	.
=24-	=24-
8F	.
(8G	-la
8A)	.
(8G	re-
8A	.
8G)	.
8F	-sul-
8F	-tet.
=25-	=25-
(8G	Qua-
8A)	.
8G	prop
8G	-ter
8G	ad-
8G	-stan-
8G	-ti-
8F	-bus
=26-	=26-
(8F	vo-
8G)	.
4G	-bis
(8G	fra-
8A)	.
(8A	-tres
8G)	.
=27-	=27-
4F	ka-
(8G	-ris-
8A)	.
(8G	-si-
8F)	.
4F	-mi.
=28-	=28-
8F	ad
8A	tam
8G	mi-
8G	-ram
8G	sanc-
8F	-ti
(8F	hu-
8G)	.
=29-	=29-
8G	-ius
8G	lu-
4G	-mi-
(8G	-nis
8A)	.
(8A	cla-
8G)	.
=30-	=30-
4F	-ri-
(4G	-ta-
8A	.
8G)	.
4F	-tem.
=31-	=31-
(8G	u-
8A)	.
8G	-na
8G	me-
8F	-cum
(16F	que-
16G)	.
16G	-so
8G	de-
16G	-i
=32-	=32-
16G	om-
16G	-ni-
16F	-po-
(16F	-ten-
16G)	.
16G	-tis
16G	mi-
16G	-se-
16F	-ri-
8G	-cor-
16F	-di-
(16G	-am
16A)	.
(16G	.
16A)	.
=33-	=33-
16G	.
16F	.
8A	in-
(8G	-vo-
8A	.
8G)	.
8F	-ca-
4F	-te.
=34-	=34-
(16G	Ut
16A)	.
16G	qui
8G	me
16G	non
8G	me-
16F	-is
(16F	me-
8G)	.
16G	-ri-
8G	-tis
16G	in
=35-	=35-
8G	le-
16G	-vi-
8G	-ta-
16F	-rum
(16F	nu-
8G)	.
16G	-me-
8G	-ro
8G	dig-
16G	-na-
16G	-tus
=36-	=36-
(8G	est
8A)	.
8A	ag-
8F	-gre-
(8G	-ga-
8A	.
8G)	.
8F	-re.
=37-	=37-
4A	lu-
4G	-mi-
4F	-nis
(8F	su-
8G)	.
=38-	=38-
4G	-i
4G	gra-
(8G	-ti-
8A)	.
(8A	-a
8G)	.
=39-	=39-
4F	in-
(8G	-fun-
8A	.
4G)	.
4F	-dens.
=40-	=40-
(8G	ce-
8A)	.
8G	-re-
8G	-i
8G	hu-
8F	-ius
(8F	lau-
8G)	.
=41-	=41-
8G	-dem
8F	im-
(8G	-ple-
8A)	.
(8G	.
8A)	.
8G	.
8F	.
=42-	=42-
(8G	-re
8A)	.
(8G	pre-
16A	.
16G)	.
8F	-ci-
(16E	-pi-
16F)	.
4F	-at.
=43-	=43-
(16G	Per
16A)	.
8G	do-
8G	-mi-
8F	-num
(16F	no-
16G)	.
8G	-strum
8G	hie-
8F	-sum
=44-	=44-
(8F	chri-
8G)	.
4G	-stum
(8G	fi-
8A)	.
(8A	-li-
8G)	.
=45-	=45-
4F	-um
(4G	su-
8A	.
8G)	.
4F	-um
=46-	=46-
8F	vi-
(16G	-ven-
16A)	.
8G	-tem
8G	se-
8G	-cum
8G	at-
8G	-que
8F	reg-
=47-	=47-
(16F	-nan-
16G)	.
16G	-tem
8G	in
16G	u-
8F	-ni-
(16F	-ta-
16G)	.
8G	-te
8G	spi-
16G	-ri-
(16G	-tus
=48-	=48-
8A)	.
(8A	sanc-
8G)	.
8F	-ti
(8G	de-
8A	.
8G)	.
8F	-us.
=49-	=49-
8F	per
(16G	om-
16A)	.
8G	-ni-
8G	-a
8G	se-
8F	-cu-
(8G	-la
8A)	.
=50-	=50-
(8G	.
8A)	.
8G	.
8F	.
(8G	se-
8A)	.
(8G	-cu-
8A	.
=51-	=51-
8G)	.
8F	-lo-
4F	-rum.
4F	A-
(8E	-men.
8F)	.
=52-	=52-
8F	Do-
(8G	-mi-
8A)	.
(8A	-nus
8B	.
8A)	.
(8G	vo-
8F)	.
=53-	=53-
(4G	-bi-
4A)	.
4F	-scum.
4F	Et
=54-	=54-
(8G	cum
8A)	.
(8A	spi-
8B)	.
8A	-ri-
8A	-tu
(16G	tu-
16A)	.
(16G	-o.
16F)	.
=55-	=55-
(16F	Sur-
16G	.
16A)	.
8B	.
(16A	-sum
16G	.
16A)	.
(16G	.
8F)	.
(16G	cor-
8A)	.
(16G	-da.
16F)	.
=56-	=56-
8F	Ha-
(16G	-be-
16A)	.
4A	-mus
4A	ad
(8B	do-
8A)	.
=57-	=57-
(4G	-mi-
4A)	.
(4G	-num.
4F)	.
=58-	=58-
(16F	Gra-
16G	.
16A)	.
(16G	-ti-
16F)	.
(16F	-as
16G)	.
(16A	a-
16G)	.
(16A	-ga-
16B	.
16A)	.
(16G	-mus
16A)	.
(16G	do-
16A	.
=59-	=59-
16B)	.
16A	-mi-
(16G	-no
16A)	.
16G	.
16F	.
(16G	de-
16A)	.
(16G	-o
16A	.
16G)	.
16F	no-
16F	-stro.
(16F	Dig-
16G	.
16A)	.
=60-	=60-
16B	.
8A	-num
8A	et
(16B	iu-
8A)	.
(16G	-stum
8A)	.
(16G	est.
4F)	.
=61-	=61-
(16F	Ve-
16G	.
16A)	.
(8G	-re
16F)	.
(16G	qui-
16A)	.
8G	-a
(16A	dig-
8B)	.
(16B	-num
8A)	.
=62-	=62-
8A	et
(16G	iu-
16A	.
8B)	.
(16A	-stum
16G)	.
8A	est
16F	per
8G	chri-
16F	-stum
(16G	do-
16A	.
=63-	=63-
16G	.
16A)	.
16G	.
8F	.
(16G	-mi-
8A)	.
(16G	-num
16A	.
8G)	.
8F	no-
8F	-strum.
=64-	=64-
(16G	Qui
16A)	.
8G	nos
16G	ad
8G	noc-
8F	-tem
(16F	i-
8G)	.
16G	-stam
8G	non
16G	te-
=65-	=65-
8F	-ne-
(16F	-bra-
8G)	.
16G	-rum
8G	sed
16G	lu-
8G	-mi-
16F	-nis
(16F	ma-
16G)	.
8G	-trem
=66-	=66-
8G	per-
16G	-du-
(16G	-ce-
8A)	.
(16A	-re
16G)	.
8F	dig-
(16G	-na-
8A)	.
(16G	-tus
16F)	.
16F	est.
=67-	=67-
16F	in
16F	qua
8G	e-
16A	xor
8G	-ta
16G	est
8F	ab
(16F	in-
8G)	.
16G	-fe-
8G	-ris.
=68-	=68-
16G	in
8G	e-
16G	-ter-
8F	-na
(16F	di-
16G)	.
8G	-e
16G	re-
8F	-sur-
16G	rec
8F	-ti-
=69-	=69-
(16G	-o
16A)	.
(16G	.
16A)	.
16G	.
8F	.
(16G	mor-
8A)	.
(16G	-tu-
16A	.
16G)	.
8F	-o-
16F	-rum
=70-	=70-
(32G	So-
32A)	.
32G	-lu-
32G	-tis
16G	quip-
16F	-pe
(32F	ne-
64G)	.
64G	.
32G	xi
16G	-bus.
16G	et
32F	cal-
(32F	-ca-
32G)	.
16G	-to
(32G	mor-
32A)	.
(32A	-tis
16G)	.
32F	e-
(32G	-cu-
16A)	.
(32G	-le-
32F)	.
32F	-o
=71-	=71-
16F	re-
16F	-sur-
(16G	-re-
16A)	.
16G	-xit
16F	a
(16F	mor-
16G)	.
16G	-tu-
8G	-is
16G	qui
(16F	fu-
16G)	.
16G	-e-
16G	-rat
=72-	=72-
16G	in-
8F	-ter
(16G	mor-
16A)	.
(16G	.
16A)	.
16G	.
16F	.
(16G	-tu-
16A)	.
(16G	-os
16A	.
16G)	.
16F	li-
16F	-ber
=73-	=73-
(16G	Un-
16A)	.
8G	-de
8G	et
8G	nox
8G	ip-
8G	-sa
8F	si-
(16F	-de-
16G)	.
=74-	=74-
8G	-re-
8G	-o
8G	pro
8G	ec-
8G	-cle-
8G	-si-
4G	-a-
=75-	=75-
(16G	-rum
16A)	.
(16A	.
16G)	.
8F	or-
(8G	-na-
8A	.
8G)	.
4F	-tu
=76-	=76-
8F	ce-
8F	-re-
(8G	-o-
8A)	.
8G	-rum
8F	splen-
(8F	-do-
8G)	.
=77-	=77-
8G	-re
8G	tam-
8F	-quam
(8F	di-
8G)	.
8G	-es
8G	il-
8G	-lu-
=78-	=78-
8G	-mi-
(16G	-na-
16A)	.
(16A	-ta
16G)	.
8F	col-
(8G	-lu-
8A	.
8G)	.
8F	-cet.
=79-	=79-
8F	qui-
8F	-a
8F	in
(16G	e-
16A)	.
8G	-ius
8G	ma-
8F	-tu-
(16F	-ti-
16G)	.
=80-	=80-
8G	-no.
8G	re-
8G	-sur-
8G	-gen-
8F	-te
(16F	chri-
16G)	.
8G	-sto.
8G	mors
=81-	=81-
8G	oc-
8G	-ci-
(16G	-dit
16A)	.
(16A	re-
16G)	.
8F	-demp-
(8G	-to-
16A	.
16G)	.
8F	-rem
=82-	=82-
4F	et
4G	e-
4A	-mer-
4F	-sit
=83-	=83-
(8G	vi-
8A)	.
(8G	.
8A)	.
8G	.
8F	.
(8G	-ta
8A)	.
=84-	=84-
(8G	cre-
8A	.
8G)	.
8F	-den-
(8E	-ti-
8F)	.
4F	-um.
=85-	=85-
(16G	Ve-
16A)	.
8G	-re
8G	tu
8G	pre-
8G	-ti-
(16G	-o-
8A)	.
(16A	-sus
8G)	.
=86-	=86-
8F	es
(16G	o-
8A)	.
(16G	-pi-
8F)	.
8F	-fex
8G	for-
(8G	-ma-
8A)	.
=87-	=87-
(8A	-tor
8G)	.
8F	es
(8G	om-
8A)	.
(8G	-ni-
8F)	.
8F	-um.
=88-	=88-
4F	cu-
4F	-i
(8G	qua-
8A)	.
8G	-li-
8G	-tas
=89-	=89-
8G	in
8F	a-
(8F	-gen-
8G)	.
8G	-di
8G	non
(8G	fu-
8A)	.
=90-	=90-
(8A	-it
8G)	.
8F	of-
(8G	-fi-
8A)	.
(8G	-ci-
8F)	.
8F	-o.
=91-	=91-
4F	sed
4G	in
4F	ser-
(8G	-mo-
8A)	.
=92-	=92-
(8G	.
8A)	.
8G	.
8F	.
(8G	-nis
8A)	.
(4G	im-
=93-	=93-
8A	.
8G)	.
4F	-pe-
(8E	-ri-
8F)	.
4F	-o.
=94-	=94-
(16G	Qui-
16A)	.
16G	-a
16F	.
16F	or-
(16F	-na-
16G)	.
8G	-tum
16G	at-
8G	-que
8G	ha-
16G	-bi-
=95-	=95-
16F	-tum
(16F	mun-
16G)	.
8G	-di.
16G	nec
16G	ad
8G	am-
16F	-pli-
(16F	-an-
16G)	.
8G	-dum
16G	qua-
16G	-si
=96-	=96-
(16G	i-
8A)	.
(16A	-nops
8G)	.
8F	po-
(16G	-ten-
8A)	.
(16G	-ti-
8F)	.
8F	-e.
=97-	=97-
8F	nec
8F	ad
8F	di-
(8F	-tan-
8G)	.
8G	-dum
8G	qua-
8G	-si
=98-	=98-
8F	e-
(8F	-ge-
8G)	.
8G	-nus
8G	glo-
8F	-ri-
(16G	-e
16A)	.
(16G	.
16A)	.
=99-	=99-
16G	.
16F	.
(16G	con-
16A)	.
(8G	-di-
16A	.
16G)	.
4F	-di-
4F	-sti.
=100-	=100-
(16G	To-
16A)	.
8G	-tus
(16G	ac
16A)	.
(16A	ple-
16G)	.
8F	-nus
(16G	in
16A)	.
8G	te
8F	es.
=101-	=101-
8F	qui
8F	dum
8F	per
8F	vir-
(16G	-gi-
16A)	.
8G	-ne-
8F	-a
(16F	vi-
16G)	.
=102-	=102-
8G	-sce-
8G	-ra
(16G	mun-
16A)	.
(16A	-do
16G)	.
8F	il-
(16G	-la-
16A)	.
(16G	-ve-
16F)	.
8F	-ris.
=103-	=103-
8F	vir-
8F	-gi-
8F	-ni-
(8G	-ta-
8A)	.
8G	-tem
(8F	e-
8G)	.
=104-	=104-
8G	-ti-
8G	-am
8G	cre-
8F	-a-
(16G	-tu-
8A)	.
(16G	.
16A)	.
16G	.
8F	.
=105-	=105-
(8G	-ra
8A)	.
(8G	com-
8A	.
8G)	.
8F	-men-
4F	-das.
=106-	=106-
(8G	A-
8A)	.
4G	-pes
(8F	si-
8G)	.
4G	qui
=107-	=107-
4G	-dem
4G	dum
(8G	o-
8A)	.
(8A	-re
8G)	.
=108-	=108-
4F	con-
(8G	-ci-
8A)	.
(8A	-pi-
8G)	.
4G	-unt.
=109-	=109-
(8G	o-
8A)	.
(8A	-re
8G)	.
4F	par-
(8G	-tu-
8A)	.
=110-	=110-
(8A	-ri-
8G)	.
4G	-unt
4A	ca-
(8G	-sto
8F)	.
=111-	=111-
(8G	cor-
4A)	.
(8G	-po-
4F)	.
4F	-re.
=112-	=112-
(8G	non
8A)	.
8G	fe-
8G	-do
8G	de-
8F	-si-
8G	-de-
8F	-ri-
=113-	=113-
(8G	-o
8A)	.
(8G	.
8A)	.
8G	.
8F	.
(8G	co-
8A)	.
=114-	=114-
(4G	-pu-
8A	.
8G)	.
4F	lan
4F	-tur.
=115-	=115-
(4G	De-
4A)	.
4G	-ni-
4G	-que
=116-	=116-
4G	vir-
8G	-gi-
8G	-ni-
(8G	-ta-
8A)	.
(8A	-tem
8G)	.
=117-	=117-
4F	ser-
(4G	van
8A	.
8G)	.
4F	-tes.
=118-	=118-
8G	po-
8G	-ste-
(8G	-ri-
8A)	.
(8A	-ta-
8G)	.
4F	-tem
=119-	=119-
(8G	ge-
8A)	.
(8A	-ne-
8G)	.
4F	-rant.
(8G	so-
8A)	.
=120-	=120-
(8A	-bo-
8G)	.
4F	-le
(8G	gau-
8A	.
8G)	.
8F	-dent.
=121-	=121-
8A	ma-
(8G	-tres
8A	.
8G)	.
8F	di-
(8G	cun
8A	.
8G)	.
=122-	=122-
4F	-tur
4G	in-
(8G	tac
8A)	.
(8A	-te
8G)	.
=123-	=123-
4F	per-
(8G	-du-
8A	.
4G)	.
4F	-rant.
=124-	=124-
(8G	fi-
8A)	.
(8A	-li-
8G)	.
4F	-os
(8G	ge-
8A)	.
=125-	=125-
(8G	-ne-
8F)	.
4F	-rant.
4F	et
(16G	vi-
16A)	.
(16G	.
16A)	.
=126-	=126-
16G	.
8F	.
(16G	-ros
8A)	.
(16G	non
16A	.
8G)	.
8F	no-
4F	-runt.
=127-	=127-
(16G	Flo-
16A)	.
8G	-re
(16G	u-
16A)	.
8A	tun
8F	-tur
(16G	co-
16A)	.
(16G	niu
16F)	.
8F	-ge.
=128-	=128-
(8G	flo-
8A)	.
4G	-re
(8G	fun-
8A)	.
4A	-gun-
=129-	=129-
4F	-tur
(8G	ge-
8A)	.
(8G	-ne-
8F)	.
4F	-re.
=130-	=130-
(8G	flo-
8A)	.
8G	-re
(8A	do-
8G)	.
8F	-mos
(8G	in-
8A)	.
=131-	=131-
(8G	stru
8F)	.
8F	-unt.
(16G	flo-
16A)	.
8G	-re
8G	di-
(8G	-vi-
8A)	.
=132-	=132-
(8A	-ti-
8G)	.
8F	-as
(8G	con-
8A)	.
(8G	-ve-
8F)	.
8F	-unt
=133-	=133-
4G	flo-
4F	-re
(4G	ce-
4A)	.
=134-	=134-
(8G	.
8A)	.
8G	.
8F	.
(8G	-ram
8A)	.
(4G	con-
=135-	=135-
8A	.
8G)	.
4F	-fi-
(8E	-ci-
8F)	.
4F	-unt.
=136-	=136-
(4G	O
4A)	.
4G	am-
4F	-mi-
=137-	=137-
(8F	ran
8G)	.
4G	-dus
(8G	a-
8A)	.
(8A	-pi-
8G)	.
=138-	=138-
4F	-um
(4G	fer-
8A	.
8G)	.
4F	-bor.
=139-	=139-
8F	ad
8F	com-
(8G	-mu-
8A)	.
8G	-ne
(8F	o-
8G)	.
8G	-pus
=140-	=140-
8G	pa-
8G	-ci-
8G	-fi-
8G	-ca
(8G	tur-
8A)	.
(8A	-ba
8G)	.
=141-	=141-
4F	con-
(8G	cur
8A	.
4G)	.
4F	-runt.
=142-	=142-
8F	et
8F	o-
8F	-pe-
(8G	ran
8A)	.
8G	-ti-
8F	-bus
(16F	plu-
16G)	.
=143-	=143-
8G	-ri-
8G	-mis.
8G	u-
8G	-na
8F	au-
(16G	-ge-
16A)	.
(16G	.
16A)	.
16G	.
16F	.
=144-	=144-
(8G	-tur
8A)	.
(8G	sub-
16A	.
16G)	.
8F	-stan-
(8E	-ti-
8F)	.
8F	-a.
=145-	=145-
(4G	O
4A)	.
4G	in-
4F	-vi-
=146-	=146-
(8F	-si-
8G)	.
4G	-bi-
(8G	-le
8A)	.
4A	ar-
=147-	=147-
4F	-ti-
(8G	-fi-
8A)	.
(8G	-ci-
8F)	.
4F	-um
=148-	=148-
8A	pri-
8G	-mo
(8F	cul-
8G)	.
8G	-mi-
4G	-ne
8G	pro
=149-	=149-
4G	fun-
4G	-da-
(8G	-men-
8A)	.
(8A	-tis
8G)	.
=150-	=150-
4F	e-
(8G	-di-
8A)	.
(8G	-fi-
8F)	.
4F	-cant.
=151-	=151-
8F	et
8A	tam
8G	pon-
8G	-de-
8G	ro
8G	-sa
8G	mel-
8F	-lis
=152-	=152-
(8F	sar-
8G)	.
8G	-ci-
8G	-nam.
8G	pen-
8G	-den-
8G	-ti-
(16G	-bus
16A)	.
=153-	=153-
(8A	do-
8G)	.
8F	-mi-
(8G	-ci-
8A)	.
(8G	-li-
8F)	.
8F	-is.
=154-	=154-
4F	im-
4G	-po-
4F	-ne-
(8G	-re
8A)	.
=155-	=155-
(8G	.
8A)	.
8G	.
4F	.
(8G	non
4A)	.
=156-	=156-
(8G	ve-
8A	.
4G)	.
4F	ren
4F	-tur.
=157-	=157-
(8G	O
8A)	.
4G	vir-
4G	-gi-
4G	-ni-
=158-	=158-
(8G	-ta-
4A)	.
(8A	-tis
4G)	.
4F	in-
=159-	=159-
(8G	-si-
4A)	.
(8G	gni
4F)	.
4F	-a.
=160-	=160-
4F	que
8A	non
8G	pos-
4G	-ses-
8G	-so-
8F	-ris
=161-	=161-
(8F	dam-
8G)	.
8G	-na
8G	sed
8G	si-
8G	-bi
(8G	lu-
8A)	.
=162-	=162-
(8A	-cra
8G)	.
8F	con-
(8G	nec
8A	.
8G)	.
4F	-tant.
=163-	=163-
8G	au-
8G	-fe-
(16G	-runt
8A)	.
(16A	qui-
8G)	.
8F	-dem
(16G	pre-
16A	.
8G)	.
=164-	=164-
16F	-dam
8F	et
8F	cum
(16G	pre-
16A)	.
8G	-dam
16G	mi-
8G	-ni-
8F	-me
(16G	tol-
16A)	.
=165-	=165-
(16G	.
16A)	.
16G	.
8F	.
(16G	-lunt
8A)	.
(16G	pec-
16A	.
8G)	.
8F	-ca-
8F	-tum.
=166-	=166-
(16G	Spo-
16A)	.
8G	-li-
8G	-ant
8G	qui-
(16G	-dem
16A)	.
(16A	flo-
16G)	.
8F	-rum
(8G	cu-
=167-	=167-
16A	.
16G)	.
8F	-tem.
8F	et
(16G	mor-
16A)	.
16G	-su-
16G	-um
16G	non
8G	an-
8F	-no-
(16G	-tant
=168-	=168-
16A)	.
(16G	.
16A)	.
16G	.
8F	.
(16G	ci-
8A)	.
(16G	-ca-
16A	.
8G)	.
8F	-tri-
16F	-cem.
=169-	=169-
(8G	Sed
8A)	.
4G	in-
4G	-ter
4G	hec
=170-	=170-
4G	que
(8G	di-
8A)	.
(8A	nu
8G)	.
4F	-me-
=171-	=171-
(8G	-ra-
4A)	.
(8G	-vi-
4F)	.
4F	-mus
=172-	=172-
8A	hu-
4G	-ius
8G	ce-
8G	-re-
4F	-i
8G	gra-
=173-	=173-
4F	-ti-
(8G	-am
8A)	.
(8G	.
8A)	.
8G	.
8F	.
=174-	=174-
(8G	pre-
8A)	.
(8G	-di-
8A	.
8G)	.
8F	-ce-
4F	-mus.
=175-	=175-
(8G	Cu-
8A)	.
4G	-ius
8G	o-
4G	-dor
8F	su-
=176-	=176-
(8F	-a-
8G)	.
4G	-vis
4G	est.
(8G	et
8A)	.
=177-	=177-
(8A	flam-
8G)	.
8F	-ma
(8G	y-
8A)	.
(8G	-la-
8F)	.
8F	-ris.
=178-	=178-
4A	non
4G	te-
4G	-tro
4F	o-
=179-	=179-
(8F	-do-
8G)	.
4G	-re
4G	ar-
(8G	-vi-
8A)	.
=180-	=180-
(8A	-na
8G)	.
8F	de-
(8G	-su-
8A	.
8G)	.
4F	-dat.
=181-	=181-
4F	sed
4F	io-
4F	cun
(8G	dis
8A)	.
=182-	=182-
4G	-si-
4G	-ma
(8G	su-
8A)	.
(8A	-a-
8G)	.
=183-	=183-
4F	-vi-
(8G	-ta-
8A	.
8G)	.
8F	.
4F	-te.
=184-	=184-
4F	qui
8F	pe-
8F	-re-
(8G	gri
8A)	.
4G	-nis
=185-	=185-
4G	non
4G	in-
4G	-fi-
(8G	-ci-
8A)	.
=186-	=186-
(8A	-tur
8G)	.
8F	pig-
(8G	-men-
8A	.
8G)	.
4F	-tis.
=187-	=187-
8F	sed
4F	il-
8A	-lu-
8G	-mi-
8G	-na-
4F	-tur
=188-	=188-
(8G	spi-
8A)	.
(8G	.
4A)	.
8G	.
4F	.
=189-	=189-
(8G	-ri-
8A)	.
(8G	-tu
8A	.
8G)	.
8F	sanc-
4F	-to.
=190-	=190-
(8G	Qui
8A)	.
8G	ut
8G	ac-
8G	-cen-
8G	-sus
8G	pro-
8G	pri
=191-	=191-
8F	-as
(8F	cor-
8G)	.
8G	-po-
8G	-ris.
8G	com-
(8G	-pa-
8A)	.
=192-	=192-
(8A	-ges
8G)	.
8F	de-
(8G	-pa-
8A	.
8G)	.
4F	-scit
=193-	=193-
(16G	i-
16A)	.
8G	-ta
8G	co-
8G	-a-
8G	-go-
8G	-la-
8F	-tas
(16F	la-
16G)	.
=194-	=194-
8G	-cri-
8G	-mas
8G	in
8G	ri-
8G	vu
8F	-los
(8G	fun-
8A)	.
=195-	=195-
(16G	.
16A)	.
16G	.
8F	.
(16G	-dit
8A)	.
(16G	gut-
16A	.
8G)	.
8F	-ta-
8F	-[rum.]
=196-	=196-
(16G	Qui-
16A)	.
8G	-que
8G	se-
8G	-mi-
8G	-u-
8F	-sta
(16F	mem-
16G)	.
8G	-bra
=197-	=197-
16G	am-
8G	bro
8G	-se-
8F	-o
(16F	san-
16G)	.
16G	.
8G	gui
8G	-ne
8G	fla-
=198-	=198-
8G	-ve-
8G	-a
(16G	ve-
8A)	.
(16A	-na
16G)	.
8F	di-
(16G	stol
16A	.
16G)	.
8F	-lit.
=199-	=199-
(8G	ha-
8A)	.
4G	-bi-
4F	-tum
8G	bi-
8F	-bit
=200-	=200-
(8G	ig-
8A)	.
(8G	.
8A)	.
8G	.
8F	.
(8G	-nis
8A)	.
=201-	=201-
(8G	hu-
8A	.
4G)	.
4F	-mo-
4F	-rem.
=202-	=202-
(16G	In
16A)	.
16G	hu-
8G	-ius
8G	au-
16G	-tem
8G	ce-
8G	-re-
8F	-i
(16F	lu-
16G)	.
=203-	=203-
8G	-mi-
8G	-nis
8A	cor-
16G	-po-
8G	-re
8G	te
8G	om-
8G	-ni-
16G	-po-
=204-	=204-
(16G	-tens
8A)	.
(16A	po-
8G)	.
8F	stu
(16G	-la-
16A	.
8G)	.
4F	-mus.
=205-	=205-
8F	ut
8F	su-
8A	-per-
8G	-ne
8G	be-
8G	-ne-
8G	dic
8F	-ti-
=206-	=206-
8G	-o-
8F	-nis
(8G	mu-
8A)	.
(16G	.
16A)	.
16G	.
16F	.
(8G	-nus
8A)	.
=207-	=207-
(8G	ac-
8A	.
8G)	.
8F	com
(8E	-mo-
8F)	.
4F	-des.
=208-	=208-
(8G	Ut
8A)	.
8G	si
8G	quis
8F	hinc
(8F	sump-
8G)	.
8G	.
=209-	=209-
8G	-se-
8G	-rit
8G	ad-
8G	-ver-
4G	-sus
(8G	fla-
8A)	.
=210-	=210-
(8A	-bra
8G)	.
4F	ven-
(8G	-to-
8A	.
8G)	.
8F	-rum.
=211-	=211-
8F	ad
8A	ver-
8G	-sus
8G	spi-
8G	-ri-
(16G	-tus
16A)	.
(16A	pro-
16G)	.
8F	-cel-
=212-	=212-
(16G	-la-
16A	.
8G)	.
16F	-rum.
16A	sit
16G	ei
16F	do-
16F	-mi-
16F	-ne
16G	sin-
16G	-gu-
=213-	=213-
(16G	-la-
8A)	.
(16A	-re
8G)	.
8F	per-
(16G	-fu-
8A)	.
(16G	-gi-
8F)	.
8F	-um.
=214-	=214-
(8G	sit
8A)	.
4G	mu-
4G	-rus
4F	ab
=215-	=215-
(8G	ho-
8A)	.
(8G	.
8A)	.
8G	.
8F	.
(8G	-ste
8A)	.
=216-	=216-
(8G	fi-
8A	.
4G)	.
8F	-de-
(8E	-li-
8F)	.
8F	-bus
=217-	=217-
(16G	Sal-
16A)	.
8G	-vum
8G	fac
8G	po-
8G	-pu-
8G	-lum
8G	tu-
8F	-um
=218-	=218-
(16F	do-
16G)	.
8G	-mi-
8G	-ne
8G	et
8G	be-
8G	-ne-
8G	-dic
8G	he-
=219-	=219-
8G	-re-
(16G	-di-
8A)	.
(16A	-ta-
8G)	.
8F	-tem
(16G	tu-
16A	.
8G)	.
8F	-am.
=220-	=220-
8F	ut
8F	re-
8F	-de-
(8G	-un-
8A)	.
4G	-tes
8G	ad
=221-	=221-
8G	fe-
8G	-sti-
8G	-vi-
8G	-ta-
4F	-tem
(8F	pa-
8G)	.
=222-	=222-
4G	-sche.
8G	per
(8G	hec
8A)	.
4G	vi-
8F	-si-
=223-	=223-
(8F	-bi-
&(8G&))	.
8G	-li-
4G	-bus
8G	et
8G	in-
8G	-vi-
=224-	=224-
8F	-si-
(8F	-bi-
8G)	.
8G	-li-
4G	-bus
(8G	tu
8A)	.
=225-	=225-
(8A	i-
8G)	.
8F	nhi
(8G	-an-
8A	.
8G)	.
4F	-tes
=226-	=226-
4F	dum
4F	pre-
4A	sen
4G	-ti-
=227-	=227-
4G	-um
(8G	u-
4A)	.
(8A	-su-
4G)	.
=228-	=228-
4F	-fru-
(8G	-un-
8A	.
4G)	.
4F	-tur.
=229-	=229-
8F	fu-
8F	-tu-
(8G	ro
8A)	.
4G	-rum
8G	de-
8F	-si-
=230-	=230-
8G	-de-
8F	-ri-
(8G	-o
8A)	.
(8G	.
8A)	.
8G	.
8F	.
=231-	=231-
(8G	ac-
8A)	.
(8G	-cen-
8A	.
8G)	.
8F	dan
4F	-tur.
=232-	=232-
(8G	U-
8A)	.
8G	-na
8G	cum
8G	be-
8F	-a-
(8F	-tis-
8G)	.
=233-	=233-
4G	-si-
4G	-mo
4G	pa-
(8G	-pa
8A)	.
=234-	=234-
(8A	no-
8G)	.
8F	-stro.
(8G	il-
8A	.
8G)	.
4F	-lo.
=235-	=235-
4F	et
4F	an-
4A	-ti-
4G	-sti-
=236-	=236-
(4G	-te
4A)	.
(4A	no-
4G)	.
=237-	=237-
4F	-stro
(8G	il-
8A	.
4G)	.
4F	-lo.
=238-	=238-
8F	sed
8F	et
(16G	om-
16A)	.
8G	-ni-
8G	-bus
8F	pre-
(16F	-sbi-
16G)	.
8G	-te-
=239-	=239-
(16G	-ris
8A)	.
(16A	di-
8G)	.
8F	-a-
(16G	-co-
8A)	.
(16G	-ni-
8F)	.
8F	-bus.
=240-	=240-
(16F	sub-
8A)	.
(16A	-di-
8G)	.
8F	-a-
(16G	-co-
8A)	.
(16G	-ni-
8F)	.
8F	-bus.
=241-	=241-
4F	cunc-
4G	-to-
4F	-que
(8G	cle-
8A)	.
=242-	=242-
(8G	.
8A)	.
8G	.
4F	.
(8G	-ro
4A)	.
=243-	=243-
(8G	vel
8A	.
4G)	.
4F	ple-
4F	-be.
=244-	=244-
(16G	Me-
16A)	.
8G	-mo-
8G	-ra-
8F	-re
(16F	do-
16G)	.
8G	-mi-
8G	-ne
8G	fa-
=245-	=245-
8G	-mu-
8F	-lo
(16F	tu-
8G)	.
8G	-o
8G	im-
8G	-pe-
(16G	-ra-
8A)	.
=246-	=246-
(16A	-to-
8G)	.
8F	-re
(16G	no-
16A	.
8G)	.
8F	-stro
(16G	ill
16A	.
16G)	.
8F	.
=247-	=247-
4F	et
4A	e-
4G	-ius
4F	e-
=248-	=248-
4G	-xer-
4F	-ci-
(16G	-tu
8A)	.
(16G	.
8A)	.
16G	.
16F	.
=249-	=249-
(8G	u-
8A)	.
(8G	-ni-
16A	.
16G)	.
4F	-ver-
4F	-su.
=250-	=250-
(8G	Qui
8A)	.
8G	vi-
8G	-vis
16F	cum
16F	.
(8F	pa-
8G)	.
8G	-tre
=251-	=251-
8G	et
8G	spi-
8G	-ri-
8F	-tu
(8F	sanc-
8G)	.
8G	-to.
(8G	et
=252-	=252-
8A)	.
(8A	reg-
8G)	.
8F	-n[as]
(8G	de-
8A	.
8G)	.
8F	-us.
=253-	=253-
8F	per
8A	om-
8G	-ni-
8F	-a
8G	se-
8F	-cu-
(8G	-la
8A)	.
=254-	=254-
(8G	.
8A)	.
8G	.
8F	.
(8G	se-
8A)	.
(8G	-cu-
8A	.
=255-	=255-
8G)	.
4F	[lo
8F	-rum
4F	A-
(8E	-men]
8F)	.
=256-	=256-
1r	.
=257-	=257-
1r	.
=258-	=258-
1r	.
=259-	=259-
1r	.
=260-	=260-
1r	.
=261-	=261-
1r	.
=262-	=262-
1r	.
=263-	=263-
1r	.
=264-	=264-
1r	.
=265-	=265-
1r	.
=266-	=266-
1r	.
=267-	=267-
1r	.
=268-	=268-
1r	.
=269-	=269-
1r	.
=270-	=270-
1r	.
=271-	=271-
1r	.
=272-	=272-
1r	.
=273-	=273-
1r	.
=274-	=274-
1r	.
=275-	=275-
1r	.
=276-	=276-
1r	.
=277-	=277-
1r	.
=278-	=278-
1r	.
=279-	=279-
1r	.
=280-	=280-
1r	.
=281-	=281-
1r	.
=282-	=282-
1r	.
=283-	=283-
1r	.
=284-	=284-
1r	.
=285-	=285-
1r	.
=286-	=286-
1r	.
=287-	=287-
1r	.
=288-	=288-
1r	.
=289-	=289-
1r	.
=290-	=290-
1r	.
=291-	=291-
1r	.
=292-	=292-
1r	.
=293-	=293-
1r	.
=294-	=294-
1r	.
=295-	=295-
1r	.
=296-	=296-
1r	.
=297-	=297-
1r	.
=298-	=298-
1r	.
=299-	=299-
1r	.
=300-	=300-
1r	.
=301-	=301-
1r	.
=302-	=302-
1r	.
=303-	=303-
1r	.
=304-	=304-
1r	.
=305-	=305-
1r	.
=306-	=306-
1r	.
=307-	=307-
1r	.
=308-	=308-
1r	.
=309-	=309-
1r	.
=310-	=310-
1r	.
=311-	=311-
1r	.
=312-	=312-
1r	.
=313-	=313-
1r	.
=314-	=314-
1r	.
=315-	=315-
1r	.
=316-	=316-
1r	.
=317-	=317-
1r	.
=318-	=318-
1r	.
=319-	=319-
1r	.
=320-	=320-
1r	.
=321-	=321-
1r	.
=322-	=322-
1r	.
=323-	=323-
1r	.
=324-	=324-
1r	.
=325-	=325-
1r	.
=326-	=326-
1r	.
=327-	=327-
1r	.
=328-	=328-
1r	.
=329-	=329-
1r	.
=330-	=330-
1r	.
=331-	=331-
1r	.
=332-	=332-
1r	.
=333-	=333-
1r	.
=334-	=334-
1r	.
=335-	=335-
1r	.
=336-	=336-
1r	.
=337-	=337-
1r	.
=338-	=338-
1r	.
=339-	=339-
1r	.
=340-	=340-
1r	.
=341-	=341-
1r	.
=342-	=342-
1r	.
=343-	=343-
1r	.
=344-	=344-
1r	.
=345-	=345-
1r	.
=346-	=346-
1r	.
=347-	=347-
1r	.
=348-	=348-
1r	.
=349-	=349-
1r	.
=350-	=350-
1r	.
=351-	=351-
1r	.
=352-	=352-
1r	.
=353-	=353-
1r	.
=354-	=354-
1r	.
=355-	=355-
1r	.
=356-	=356-
1r	.
=357-	=357-
1r	.
=358-	=358-
1r	.
=359-	=359-
1r	.
=360-	=360-
1r	.
=361-	=361-
1r	.
=362-	=362-
1r	.
=363-	=363-
1r	.
=364-	=364-
1r	.
=365-	=365-
1r	.
=366-	=366-
1r	.
=367-	=367-
1r	.
=368-	=368-
1r	.
=369-	=369-
1r	.
=370-	=370-
1r	.
=371-	=371-
1r	.
=372-	=372-
1r	.
=373-	=373-
1r	.
=374-	=374-
1r	.
=375-	=375-
1r	.
=376-	=376-
1r	.
==	==
*-	*-
!!!hum2abc: -p "%%nostems" -M none
!!!ENC: Elsa De Luca
!!!RWG: Rhythms and barlines are for alignment only, not found in source.
!!!YEC: Copyright 2009, Elsa De Luca
!!!title: @{OTL}, @{SMS}
